Papirus/22x22/panel/copyq-normal.svg

<?xml version="1.0" encoding="UTF-8" standalone="no"?>
<svg xmlns:osb="http://www.openswatchbook.org/uri/2009/osb" xmlns:dc="http://purl.org/dc/elements/1.1/" xmlns:cc="http://creativecommons.org/ns#" xmlns:rdf="http://www.w3.org/1999/02/22-rdf-syntax-ns#" xmlns:svg="http://www.w3.org/2000/svg" xmlns="http://www.w3.org/2000/svg" height="22" id="svg7384" style="enable-background:new" version="1.1" width="22">
    <metadata id="metadata90">
        <rdf:RDF>
            <cc:Work rdf:about="">
                <dc:format>
                    image/svg+xml
                </dc:format>
                <dc:type rdf:resource="http://purl.org/dc/dcmitype/StillImage"/>
                <dc:title>
                    Paper Symbolic Icon Theme
                </dc:title>
            </cc:Work>
        </rdf:RDF>
    </metadata>
    <title id="title8473">
        Paper Symbolic Icon Theme
    </title>
    <defs id="defs7386">
        <linearGradient id="linearGradient5606" osb:paint="solid">
            <stop id="stop5608" offset="0" style="stop-color:#ffffff;stop-opacity:1;"/>
        </linearGradient>
        <filter id="filter7554" style="color-interpolation-filters:sRGB">
            <feBlend id="feBlend7556" in2="BackgroundImage" mode="darken"/>
        </filter>
    </defs>
    <path id="rect4248" d="M 6.5,4 A 3.5,3.5 0 0 0 3,7.5 3.5,3.5 0 0 0 6.5,11 3.5,3.5 0 0 0 7.9765625,10.669922 L 9.5,12.5 4,19 l 7,-5 7,5 -5.5,-6.5 1.523438,-1.832031 A 3.5,3.5 0 0 0 15.5,11 3.5,3.5 0 0 0 19,7.5 3.5,3.5 0 0 0 18.998,7.474609 c 7.7e-5,-0.01965 -0.0017,-0.038945 -0.002,-0.058594 A 3.5,3.5 0 0 0 18.951172,6.9453125 C 18.93337,6.8258239 18.905212,6.7092383 18.875,6.5917969 A 3.5,3.5 0 0 0 18.816406,6.3867188 C 18.753424,6.1921401 18.670315,6.0053023 18.572266,5.8222656 18.417941,5.5341766 18.237291,5.2571405 17.996094,5.0136719 17.460385,4.472923 16.790929,4.1589924 16.095703,4.0507812 a 3.5,3.5 0 0 0 -0.02734,-0.00391 3.5,3.5 0 0 0 -0.460937,-0.042969 C 15.595615,4.0037839 15.584073,4 15.572266,4 c -0.0059,0 -0.01169,0.00192 -0.01758,0.00195 A 3.5,3.5 0 0 0 15.5,4 3.5,3.5 0 0 0 12,7.5 3.5,3.5 0 0 0 12.382812,9.0839844 L 11,11 9.6191406,9.0878906 A 3.5,3.5 0 0 0 10,7.5 3.5,3.5 0 0 0 6.5,4 Z m 0,2 A 1.5,1.5 0 0 1 8,7.5 1.5,1.5 0 0 1 6.5,9 1.5,1.5 0 0 1 5,7.5 1.5,1.5 0 0 1 6.5,6 Z m 9,0 A 1.5,1.5 0 0 1 17,7.5 1.5,1.5 0 0 1 15.5,9 1.5,1.5 0 0 1 14,7.5 1.5,1.5 0 0 1 15.5,6 Z" style="opacity:1;fill:#ffffff;fill-opacity:1;stroke:none"/>
</svg>

<?xml version="1.0" encoding="UTF-8" standalone="no"?>
<svg id="svg7384" xmlns:rdf="http://www.w3.org/1999/02/22-rdf-syntax-ns#" style="enable-background:new" xmlns="http://www.w3.org/2000/svg" xmlns:osb="http://www.openswatchbook.org/uri/2009/osb" height="22" width="22" version="1.1" xmlns:cc="http://creativecommons.org/ns#" xmlns:dc="http://purl.org/dc/elements/1.1/">
 <metadata id="metadata90">
  <rdf:RDF>
   <cc:Work rdf:about="">
    <dc:format>image/svg+xml</dc:format>
    <dc:type rdf:resource="http://purl.org/dc/dcmitype/StillImage"/>
   </cc:Work>
  </rdf:RDF>
 </metadata>
 <path id="rect4248" d="m6.5 4a3.5 3.5 0 0 0 -3.5 3.5 3.5 3.5 0 0 0 3.5 3.5 3.5 3.5 0 0 0 1.4766 -0.33l1.5234 1.83-5.5 6.5 7-5 7 5-5.5-6.5 1.5234-1.832a3.5 3.5 0 0 0 1.477 0.332 3.5 3.5 0 0 0 3.5 -3.5 3.5 3.5 0 0 0 -0.002 -0.0254c0.000077-0.01965-0.0017-0.038945-0.002-0.058594a3.5 3.5 0 0 0 -0.045 -0.4707c-0.018-0.1195-0.046-0.2361-0.076-0.3535a3.5 3.5 0 0 0 -0.059 -0.2051c-0.063-0.1946-0.146-0.3814-0.244-0.5644-0.154-0.2881-0.335-0.5652-0.576-0.8086-0.536-0.5408-1.205-0.8547-1.9-0.9629a3.5 3.5 0 0 0 -0.02734 -0.00391 3.5 3.5 0 0 0 -0.46094 -0.042969c-0.012-0.0001-0.024-0.0039-0.036-0.0039-0.0059 0-0.01169 0.00192-0.01758 0.00195a3.5 3.5 0 0 0 -0.054 -0.002 3.5 3.5 0 0 0 -3.5 3.5 3.5 3.5 0 0 0 0.383 1.584l-1.383 1.916-1.3809-1.9121a3.5 3.5 0 0 0 0.3809 -1.5879 3.5 3.5 0 0 0 -3.5 -3.5zm0 2a1.5 1.5 0 0 1 1.5 1.5 1.5 1.5 0 0 1 -1.5 1.5 1.5 1.5 0 0 1 -1.5 -1.5 1.5 1.5 0 0 1 1.5 -1.5zm9 0a1.5 1.5 0 0 1 1.5 1.5 1.5 1.5 0 0 1 -1.5 1.5 1.5 1.5 0 0 1 -1.5 -1.5 1.5 1.5 0 0 1 1.5 -1.5z" fill="#fff"/>
</svg>
